public/img/gosen-add.svg

<svg fill="none" height="602" viewBox="0 0 1705 602" width="1705" xmlns="http://www.w3.org/2000/svg"><path clip-rule="evenodd" d="m1703.99 601.547h-1647.49v-546.6595h72.781c.85-41.05 26.363-54.749988 26.363-54.749988 15.381 18.658788 19.761 37.586288 18.441 54.749988h1530.295v178.4265h-1535.57c2.018 10.071 3.144 15.734 3.943 20.035 8.961 48.285-38.924 59.831-55.512 32-7.472-12.54-5.196-32.109 12.422-32.109 4.399.038 8.606 1.813 11.703 4.937 3.098 3.125 4.836 7.346 4.836 11.746s-1.738 8.622-4.836 11.746c-3.097 3.125-7.304 4.899-11.703 4.937h-.25c14.987 20.304 40.773-1.099 39.165-23.797-.58-8.125-2.854-19.824-4.97-29.49h-101.653v189.806h1642.425v178.422zm-18.79-374.081h6.61v-37.296h-6.61zm0-43.145h6.61v-37.297h-6.61zm0-43.143h6.61v-38.303h-6.61v38.296zm0-44.1442h6.61v-36.2963h-6.61zm-1623.245 87.2872h30.0113c-2.3938-11.923.6-24.942 5.9375-37.297h-35.9488zm0-43.143h38.67c7.45-15.008 17.75-28.56 25.095-37.297l-63.765-1zm81.5 5.846h-27.41c-9 11.867-15.961 24.969-15.396 37.297h22.781c-2.529-13.196 2.058-28.853 20.02-37.297zm-10.392 37.297h20.112c-1.274-6.171-2.592-12.582-3.896-18.93l-.078-.25c-10.338 4.418-15.076 11.709-16.143 19.18zm11.257-43.143-4.221-20.64c-5.775 5.687-12.844 12.79-19.399 20.64h23.615zm-14.992-80.4405h-67.3755v36.2963l68.8475 1c2.473-2.7438 4-4.2813 4-4.2813-3.128-10.7488-4.965-21.8318-5.472-33.015zm10.087 27.8288c7.358-8.6578 13.904-17.9732 19.558-27.8288h-21.932c-.22 9.3349.576 18.666 2.374 27.8288zm19.918-61.625c-10.593-6.2238-20.313 15.9362-21.585 25.07-.125.9375-.237 1.9025-.333 2.875h24.494c5.299-11.6775 6.567-22.5725-2.576-27.9463zm1520.027 33.7962h-1505.957c-2.249 13.2917-7.19 25.9836-14.522 37.2963l1520.479-1zm0 42.1435-1524.436 1c-3.039 4.255-6.41 8.262-10.083 11.984 1.192 5.78 3.032 14.715 5.209 25.314h1529.31v-38.304zm-1524.719 60.664c1.392 6.791 2.825 13.803 4.25 20.776h23.217c-3.197-12.458-13.435-22.302-27.467-20.776zm1524.719-16.521h-1506.805c5.529 2.541 10.504 6.146 14.639 10.61s7.351 9.699 9.462 15.406c1.331 3.634 2.178 7.427 2.518 11.281h1480.186zm0 80.442v-37.296h-1480.147c-1.435 20.519-19.522 33.957-31.279 37.296zm-1512.957-6.14c12.662-7.535 17.5-19.827 16.66-31.156h-22.98c2.243 11.009 4.417 21.74 6.32 31.156zm-5.153 1.573c-1.361-6.208-3.931-18.5-6.875-32.729h-21.437c.875 9.038 6.49 17.291 13.331 19.825-7.033.5-16.858-7.982-21.226-19.825h-23.529c.026.103.042.206.07.309 5.68 20.885 30.732 38.777 59.666 32.42zm-26.31 4.567c-16.482-4.469-34.261-15.551-41.3962-37.296h-31.5888v37.296zm-72.985 325.089h65.028c10.021-10.261 20.455-22.843 28.125-37.296h-93.153zm0-43.144h96.045c3.998-8.502 6.707-17.553 8.035-26.853.5-3.717.801-7.189.925-10.443h-26.767c-1.3 2.421-3.231 4.444-5.589 5.855s-5.054 2.157-7.801 2.158c-2.674.013-5.295-.733-7.561-2.152-2.266-1.418-4.082-3.451-5.238-5.861h-52.049zm80.06-79.773c-6.203.001-12.169 2.381-16.671 6.649-4.501 4.268-7.195 10.099-7.526 16.293 2.268-1.664 4.954-2.666 7.758-2.895 2.804-.228 5.616.326 8.124 1.601s4.613 3.221 6.08 5.621c1.468 2.4 2.241 5.161 2.233 7.974 0 .468-.029.928-.07 1.385h25.045c-.837-27.727-15.758-36.628-24.973-36.628zm-80.06 36.625h49.905c-2.836-12.55 2.659-30.132 18.14-37.293h-68.045v37.296zm1617.405-37.297h-1516.061c11.009 4.619 16.989 13.599 19.85 23.018 1.421 4.653 2.376 9.436 2.852 14.279h1493.359v-37.293zm0 43.145h-1493.035c.155 13.415-3.706 25.867-10.17 37.297h1503.205v-37.293zm0 43.144h-1506.762c-9.395 14.198-22.695 26.679-36.974 37.296h1543.736v-37.292zm0 43.145h-1551.957c-6.75 4.592-13.582 8.778-20.217 12.539 4.043-3.48 8.825-7.684 13.893-12.539h-59.1252v37.3h1617.4062v-37.296zm12.45-129.434h-6.61v37.297h6.61v-37.293zm0 43.145h-6.61v37.297h6.61v-37.293zm0 43.144h-6.61v37.296h6.61v-37.292zm0 43.145h-6.61v37.3h6.61v-37.296zm-1491.625-79.941c1.886-.005 3.731.55 5.302 1.595 1.57 1.044 2.796 2.531 3.521 4.272.725 1.742.917 3.659.552 5.509-.365 1.851-1.271 3.551-2.604 4.887-1.332 1.335-3.03 2.245-4.88 2.614-1.849.37-3.767.183-5.51-.538s-3.233-1.943-4.281-3.511-1.608-3.412-1.607-5.298c-.002-2.523.997-4.944 2.78-6.731 1.782-1.786 4.2-2.792 6.723-2.795zm0-40.437c1.886-.004 3.731.551 5.302 1.595 1.57 1.045 2.796 2.532 3.521 4.273s.917 3.659.552 5.509c-.365 1.851-1.271 3.551-2.604 4.886-1.332 1.336-3.03 2.246-4.88 2.615-1.849.37-3.767.182-5.51-.539-1.743-.72-3.233-1.942-4.281-3.51s-1.608-3.412-1.607-5.298c-.002-2.524.997-4.945 2.78-6.731 1.782-1.786 4.2-2.792 6.723-2.796zm-192.05996 40.137c24.68626-55.784-4.4075-150.09-4.4075-150.09 17.19126 5.171 42.32376 104.28 26.45126 149.35s-16.75 79.059 10.5812 124.125c-15.875-14.034-57.3162-67.601-32.62496-123.385zm0-300.18c-24.69124-55.784 16.74996-109.354 32.62496-123.3902-27.3325 45.07-26.4537 79.0582-10.5812 124.1252 15.8725 45.066-9.26 144.179-26.45126 149.351-.00625.004 29.08746-94.304 4.4075-150.086z" fill="#2f2e2f" fill-rule="evenodd"/></svg>

<svg width="1705" height="602" viewBox="0 0 1705 602" fill="none" xmlns="http://www.w3.org/2000/svg">
<path fill-rule="evenodd" clip-rule="evenodd" d="M1703.99 601.547H56.5V54.8875H129.281C130.131 13.8375 155.644 0.137512 155.644 0.137512C171.025 18.7963 175.405 37.7238 174.085 54.8875H1704.38V233.314H168.81C170.828 243.385 171.954 249.048 172.753 253.349C181.714 301.634 133.829 313.18 117.241 285.349C109.769 272.809 112.045 253.24 129.663 253.24C134.062 253.278 138.269 255.053 141.366 258.177C144.464 261.302 146.202 265.523 146.202 269.923C146.202 274.323 144.464 278.545 141.366 281.669C138.269 284.794 134.062 286.568 129.663 286.606H129.413C144.4 306.91 170.186 285.507 168.578 262.809C167.998 254.684 165.724 242.985 163.608 233.319H61.955V423.125H1704.38V601.547H1703.99H1703.99ZM1685.2 227.466H1691.81V190.17H1685.2V227.466ZM1685.2 184.321H1691.81V147.024H1685.2V184.321ZM1685.2 141.178H1691.81V102.875H1685.2V141.171V141.178ZM1685.2 97.0338H1691.81V60.7375H1685.2V97.0338ZM61.955 184.321H91.9663C89.5725 172.398 92.5663 159.379 97.9038 147.024H61.955V184.321ZM61.955 141.178H100.625C108.075 126.17 118.375 112.618 125.72 103.881L61.955 102.881V141.178ZM143.455 147.024H116.045C107.045 158.891 100.084 171.993 100.649 184.321H123.43C120.901 171.125 125.488 155.468 143.45 147.024H143.455ZM133.063 184.321H153.175C151.901 178.15 150.583 171.739 149.279 165.391L149.201 165.141C138.863 169.559 134.125 176.85 133.058 184.321H133.063ZM144.32 141.178L140.099 120.538C134.324 126.225 127.255 133.328 120.7 141.178H144.315H144.32ZM129.328 60.7375H61.9525V97.0338L130.8 98.0338C133.273 95.29 134.8 93.7525 134.8 93.7525C131.672 83.0037 129.835 71.9207 129.328 60.7375ZM139.415 88.5663C146.773 79.9085 153.319 70.5931 158.973 60.7375H137.041C136.821 70.0724 137.617 79.4035 139.415 88.5663ZM159.333 26.9413C148.74 20.7175 139.02 42.8775 137.748 52.0113C137.623 52.9488 137.511 53.9138 137.415 54.8863H161.909C167.208 43.2088 168.476 32.3138 159.333 26.94V26.9413ZM1679.36 60.7375H173.403C171.154 74.0292 166.213 86.7211 158.881 98.0338L1679.36 97.0338V60.7375ZM1679.36 102.881L154.924 103.881C151.885 108.136 148.514 112.143 144.841 115.865C146.033 121.645 147.873 130.58 150.05 141.179H1679.36V102.875V102.881ZM154.641 163.545C156.033 170.336 157.466 177.348 158.891 184.321H182.108C178.911 171.863 168.673 162.019 154.641 163.545ZM1679.36 147.024H172.555C178.084 149.565 183.059 153.17 187.194 157.634C191.329 162.098 194.545 167.333 196.656 173.04C197.987 176.674 198.834 180.467 199.174 184.321H1679.36V147.024ZM1679.36 227.466V190.17H199.213C197.778 210.689 179.691 224.127 167.934 227.466H1679.36ZM166.403 221.326C179.065 213.791 183.903 201.499 183.063 190.17H160.083C162.326 201.179 164.5 211.91 166.403 221.326ZM161.25 222.899C159.889 216.691 157.319 204.399 154.375 190.17H132.938C133.813 199.208 139.428 207.461 146.269 209.995C139.236 210.495 129.411 202.013 125.043 190.17H101.514C101.54 190.273 101.556 190.376 101.584 190.479C107.264 211.364 132.316 229.256 161.25 222.899ZM134.94 227.466C118.458 222.997 100.679 211.915 93.5438 190.17H61.955V227.466H134.94ZM61.955 552.555H126.983C137.004 542.294 147.438 529.712 155.108 515.259H61.955V552.555ZM61.955 509.411H158C161.998 500.909 164.707 491.858 166.035 482.558C166.535 478.841 166.836 475.369 166.96 472.115H140.193C138.893 474.536 136.962 476.559 134.604 477.97C132.246 479.381 129.55 480.127 126.803 480.128C124.129 480.141 121.508 479.395 119.242 477.976C116.976 476.558 115.16 474.525 114.004 472.115H61.955V509.411ZM142.015 429.638C135.812 429.639 129.846 432.019 125.344 436.287C120.843 440.555 118.149 446.386 117.818 452.58C120.086 450.916 122.772 449.914 125.576 449.685C128.38 449.457 131.192 450.011 133.7 451.286C136.208 452.561 138.313 454.507 139.78 456.907C141.248 459.307 142.021 462.068 142.013 464.881C142.013 465.349 141.984 465.809 141.943 466.266H166.988C166.151 438.539 151.23 429.638 142.015 429.638ZM61.955 466.263H111.86C109.024 453.713 114.519 436.131 130 428.97H61.955V466.266V466.263ZM1679.36 428.966H163.299C174.308 433.585 180.288 442.565 183.149 451.984C184.57 456.637 185.525 461.42 186.001 466.263H1679.36V428.97V428.966ZM1679.36 472.111H186.325C186.48 485.526 182.619 497.978 176.155 509.408H1679.36V472.115V472.111ZM1679.36 515.255H172.598C163.203 529.453 149.903 541.934 135.624 552.551H1679.36V515.259V515.255ZM1679.36 558.4H127.403C120.653 562.992 113.821 567.178 107.186 570.939C111.229 567.459 116.011 563.255 121.079 558.4H61.9538V595.7H1679.36V558.404V558.4ZM1691.81 428.966H1685.2V466.263H1691.81V428.97V428.966ZM1691.81 472.111H1685.2V509.408H1691.81V472.115V472.111ZM1691.81 515.255H1685.2V552.551H1691.81V515.259V515.255ZM1691.81 558.4H1685.2V595.7H1691.81V558.404V558.4ZM200.185 478.459C202.071 478.454 203.916 479.009 205.487 480.054C207.057 481.098 208.283 482.585 209.008 484.326C209.733 486.068 209.925 487.985 209.56 489.835C209.195 491.686 208.289 493.386 206.956 494.722C205.624 496.057 203.926 496.967 202.076 497.336C200.227 497.706 198.309 497.519 196.566 496.798C194.823 496.077 193.333 494.855 192.285 493.287C191.237 491.719 190.677 489.875 190.678 487.989C190.676 485.466 191.675 483.045 193.458 481.258C195.24 479.472 197.658 478.466 200.181 478.463L200.185 478.459ZM200.185 438.022C202.071 438.018 203.916 438.573 205.487 439.617C207.057 440.662 208.283 442.149 209.008 443.89C209.733 445.631 209.925 447.549 209.56 449.399C209.195 451.25 208.289 452.95 206.956 454.285C205.624 455.621 203.926 456.531 202.076 456.9C200.227 457.27 198.309 457.082 196.566 456.361C194.823 455.641 193.333 454.419 192.285 452.851C191.237 451.283 190.677 449.439 190.678 447.553C190.676 445.029 191.675 442.608 193.458 440.822C195.24 439.036 197.658 438.03 200.181 438.026L200.185 438.022ZM8.12504 478.159C32.8113 422.375 3.71754 328.069 3.71754 328.069C20.9088 333.24 46.0413 432.349 30.1688 477.419C14.2963 522.489 13.4188 556.478 40.75 601.544C24.875 587.51 -16.5662 533.943 8.12504 478.159ZM8.12504 177.979C-16.5662 122.195 24.875 68.625 40.75 54.5888C13.4175 99.6588 14.2963 133.647 30.1688 178.714C46.0413 223.78 20.9088 322.893 3.71754 328.065C3.71129 328.069 32.805 233.761 8.12504 177.979Z" fill="#2F2E2F"/>
</svg>
